X: 872
M: C
L: 1/8
K: Amix
V: 1
e |\
|:\
a2 (e/f/^g) aecA | a2ef gdBG |\
a2eg fae(g | f)aef gdBG :|
V: 2 clef=bass middle=d
z |\
a2a2 a2a2 | a2a2 g2g2 |\
a2a2 a2a2 | a2a2 g2g2 :|
|:\
a2a2 a2a2 | a2a2 g2g2 |\
a2a2 a2a2 | a2a2 g2g2 :|

